!! George Gerswhin, "Nice Work If You Can Get It" from
!! "Bumper Book of George Gerswhin,"
!! London: Chappell Music Ltd., 1987; pp.294-297
**kern
*M2/2
*MM[Moderato]
!! Verse
=1
8.r
16e
8.g
16d
8.e
16B
8.d
16e
=2
4g
4g
8g
4.b
=3
8r
4g
8d
8.e
16B
8.d
16e
=4
8.g
16a
12b
12a
12b
8g
4.a
=5
8b
4b
8b
4g
4g
=6
4dd
4dd
2b
=7
8r
4a
8f#
8.a
16a
8.a
16a
=8
8a
4b
8g
4f#
4a
=9
1e
!! page 295
=10
4r
4dd
4a#
4f#
=11
8.r
16e
8.g
16d
8.e
16B
8.d
16e
=12
4g
4g
8g
4.b
=13
8r
4g
8d
8.e
16B
8.d
16g
=14
4b
4b
8b
4.cc#
=15
8r
4dd
8dd
4.b
8b
=16
4dd
4dd
8b
4.cc#
=17
8.b
16b
4b
4b
4b
=18
4b
4b
4a
4b
=19
8g
[4.g
2g_
=20
4g]
4r
2r
!! Refrain
=21
4b
4cc
4cc
4b
=22
4a
2.b
=23
4g
4a
4a
4g
=24
1f#
!! page 296
=25
4.d
[8e
8.e]
16d
8.e
16g
=26
8a
4.b
8.r
16d
8.e
16g
=27
8a
4.b
4g
8g
[8g
=28
2.g]
4r
=29
4b
4cc
4cc
4b
=30
4a
2.b
=31
4g
4a
6a
6g#
6gn
=32
1f#
=33
4.d
[8e
8.e]
16d
8.e
16g
=34
8a
4.b
8.r
16d
8.e
16g
=35
8a
4.b
4g
8g
[8g
=36
1g]
=37
8r
4b
8g
4b
4g
=38
4.a#
[8g
2g]
=39
8.b
16b
8.B
16B
8e
4.g
=40
1f#
!! page 297
=41
8r
4a
8fn
4a
4f
=42
4.a
[8a
4a]
8.a
16b
=43
4dd
4dd
8.dd
16ee
4b
=44
1a#
=45
4b
4cc
4cc
4b
=46
4a
2.b
=47
4g
4a
6a
6g#
6gn
=48
1f#
=49
4.d
[8e
8.e]
16d
8.e
16g
=50
8a
4.b
8.r
16d
8.e
16g
=51
8a
[4.b
2b]
=52
4dd
4b
4g
4e
!! First ending.
=53
2.g
4r
=54
1r
!! Refrain
=21
4b
4cc
4cc
4b
=22
4a
2.b
=23
4g
4a
4a
4g
=24
1f#
!! page 296
=25
4.d
[8e
8.e]
16d
8.e
16g
=26
8a
4.b
8.r
16d
8.e
16g
=27
8a
4.b
4g
8g
[8g
=28
2.g]
4r
=29
4b
4cc
4cc
4b
=30
4a
2.b
=31
4g
4a
6a
6g#
6gn
=32
1f#
=33
4.d
[8e
8.e]
16d
8.e
16g
=34
8a
4.b
8.r
16d
8.e
16g
=35
8a
4.b
4g
8g
[8g
=36
1g]
=37
8r
4b
8g
4b
4g
=38
4.a#
[8g
2g]
=39
8.b
16b
8.B
16B
8e
4.g
=40
1f#
!! page 297
=41
8r
4a
8fn
4a
4f
=42
4.a
[8a
4a]
8.a
16b
=43
4dd
4dd
8.dd
16ee
4b
=44
1a#
=45
4b
4cc
4cc
4b
=46
4a
2.b
=47
4g
4a
6a
6g#
6gn
=48
1f#
=49
4.d
[8e
8.e]
16d
8.e
16g
=50
8a
4.b
8.r
16d
8.e
16g
=51
8a
[4.b
2b]
=52
4dd
4b
4g
4e
!! Second ending.
=52
[1g
=53
2g_
4g]
4r
====
*-
